static/assets/img/icons/theme/devices/diagnostics.svg

<svg height="24" viewBox="0 0 24 24" width="24" xmlns="http://www.w3.org/2000/svg"><g fill="none" fill-rule="evenodd"><path d="m0 0h24v24h-24z" opacity="0"/><g fill="#000"><rect height="18" opacity=".3" rx="2" width="20" x="2" y="3"/><path d="m9.9486833 13.3162278c-.13611405.4083421-.51825289.6837722-.9486833.6837722h-4c-.55228475 0-1-.4477153-1-1s.44771525-1 1-1h3.27924078l1.77207592-5.31622777c.3163693-.9491078 1.6761816-.89688446 1.9188258.07369214l1.8443638 7.37745513.7910665-1.5821331c.169392-.338784.5156551-.5527864.8944272-.5527864h3.5c.5522847 0 1 .4477153 1 1s-.4477153 1-1 1h-2.881966l-1.7236068 3.4472136c-.4151959.8303918-1.6393981.6960084-1.8645697-.204678l-1.6671186-6.6684745z" fill-rule="nonzero"/><circle cx="19" cy="6" opacity=".3" r="1"/></g></g></svg>

<svg width="24px" height="24px" viewBox="0 0 24 24" version="1.1" xmlns="http://www.w3.org/2000/svg" xmlns:xlink="http://www.w3.org/1999/xlink">
    <title>Icon For Diagnostics</title>
    <g stroke="none" stroke-width="1" fill="none" fill-rule="evenodd">
        <rect opacity="0" x="0" y="0" width="24" height="24"></rect>
        <rect fill="#000000" opacity="0.3" x="2" y="3" width="20" height="18" rx="2"></rect>
        <path d="M9.9486833,13.3162278 C9.81256925,13.7245699 9.43043041,14 9,14 L5,14 C4.44771525,14 4,13.5522847 4,13 C4,12.4477153 4.44771525,12 5,12 L8.27924078,12 L10.0513167,6.68377223 C10.367686,5.73466443 11.7274983,5.78688777 11.9701425,6.75746437 L13.8145063,14.1349195 L14.6055728,12.5527864 C14.7749648,12.2140024 15.1212279,12 15.5,12 L19,12 C19.5522847,12 20,12.4477153 20,13 C20,13.5522847 19.5522847,14 19,14 L16.118034,14 L14.3944272,17.4472136 C13.9792313,18.2776054 12.7550291,18.143222 12.5298575,17.2425356 L10.8627389,10.5740611 L9.9486833,13.3162278 Z" fill="#000000" fill-rule="nonzero"></path>
        <circle fill="#000000" opacity="0.3" cx="19" cy="6" r="1"></circle>
    </g>
</svg>
